static/logos/googleFonts-wordmark-color.svg

<svg width="100" height="15" viewBox="0 0 100 15" fill="none" xmlns="http://www.w3.org/2000/svg">
<g clip-path="url(#clip0_1_2574)">
<path d="M71.7302 7.33061V11.2534H70.5547V2.10449H75.8958V3.22838H71.7302V6.23116H75.4875V7.33061H71.7302Z" fill="#5F6368"/>
<path d="M76.4297 8.12286C76.4297 7.16064 76.7319 6.36397 77.3369 5.73342C77.9502 5.10284 78.7213 4.78784 79.6497 4.78784C80.5786 4.78784 81.3447 5.10284 81.9497 5.73342C82.563 6.36397 82.8697 7.16064 82.8697 8.12286C82.8697 9.09397 82.563 9.89064 81.9497 10.5123C81.3447 11.1429 80.5786 11.4579 79.6497 11.4579C78.7213 11.4579 77.9502 11.1429 77.3369 10.5123C76.7319 9.88175 76.4297 9.08509 76.4297 8.12286ZM77.6052 8.12286C77.6052 8.79564 77.8014 9.34064 78.193 9.75786C78.5847 10.1756 79.0702 10.384 79.6497 10.384C80.2291 10.384 80.7147 10.1756 81.1064 9.75786C81.498 9.34064 81.6941 8.79564 81.6941 8.12286C81.6941 7.45842 81.498 6.91731 81.1064 6.50009C80.7058 6.07397 80.2202 5.8612 79.6497 5.8612C79.0786 5.8612 78.593 6.07397 78.193 6.50009C77.8014 6.91731 77.6052 7.45842 77.6052 8.12286Z" fill="#5F6368"/>
<path d="M83.8672 4.99229H84.9916V5.86064H85.0427C85.2216 5.55451 85.4966 5.29895 85.8672 5.09451C86.2377 4.88951 86.6227 4.78784 87.0239 4.78784C87.7905 4.78784 88.38 5.00673 88.7927 5.44562C89.2061 5.88398 89.4127 6.50842 89.4127 7.31786V11.2534H88.2372V7.39398C88.2116 6.37175 87.6966 5.86064 86.6911 5.86064C86.2222 5.86064 85.8305 6.05064 85.5155 6.42953C85.2 6.80898 85.0427 7.26231 85.0427 7.79009V11.2534H83.8672V4.99229Z" fill="#5F6368"/>
<path d="M93.0284 11.3556C92.5173 11.3556 92.0929 11.1978 91.7567 10.8823C91.4201 10.5673 91.2479 10.1289 91.239 9.56672V6.06561H90.1406V4.99284H91.239V3.07562H92.4151V4.99284H93.9479V6.06561H92.4151V9.18338C92.4151 9.60061 92.4956 9.8845 92.6579 10.0334C92.8195 10.1828 93.0029 10.2562 93.2067 10.2562C93.3006 10.2562 93.3923 10.2462 93.4817 10.2251C93.5717 10.2039 93.6545 10.1756 93.7312 10.1412L94.1017 11.1889C93.7951 11.2995 93.4367 11.3556 93.0284 11.3556Z" fill="#5F6368"/>
<path d="M99.7245 9.51564C99.7245 10.0606 99.4857 10.5212 99.009 10.8956C98.5318 11.2701 97.9307 11.4579 97.2073 11.4579C96.5768 11.4579 96.0223 11.2934 95.5457 10.9656C95.0684 10.6384 94.7279 10.2056 94.5234 9.66897L95.5707 9.22175C95.7245 9.59675 95.9479 9.88842 96.2418 10.0973C96.5357 10.3056 96.8579 10.4101 97.2073 10.4101C97.5823 10.4101 97.8951 10.3295 98.1462 10.1673C98.3973 10.0056 98.5229 9.81397 98.5229 9.59231C98.5229 9.19175 98.2168 8.89842 97.6034 8.71064L96.5295 8.44231C95.3112 8.13564 94.7023 7.54786 94.7023 6.67897C94.7023 6.10842 94.934 5.65009 95.3984 5.30562C95.8629 4.96062 96.4573 4.78784 97.1818 4.78784C97.7351 4.78784 98.2357 4.92006 98.6829 5.18395C99.1301 5.4484 99.4429 5.8012 99.6212 6.24453L98.574 6.67897C98.4545 6.41509 98.2612 6.20842 97.9929 6.05898C97.7245 5.91064 97.4234 5.83564 97.0918 5.83564C96.7851 5.83564 96.5101 5.91231 96.2673 6.06564C96.0245 6.21897 95.9034 6.4062 95.9034 6.62786C95.9034 6.98564 96.2401 7.2412 96.9123 7.39453L97.859 7.63731C99.1023 7.94397 99.7245 8.57009 99.7245 9.51564Z" fill="#5F6368"/>
<path d="M30.2706 11.4544C27.4078 11.4544 25 9.13386 25 6.28275C25 3.43219 27.4078 1.11108 30.2706 1.11108C31.855 1.11108 32.9822 1.72942 33.8317 2.53664L32.8294 3.53275C32.2217 2.96553 31.3983 2.52386 30.2706 2.52386C28.18 2.52386 26.5456 4.20164 26.5456 6.28275C26.5456 8.36442 28.18 10.0422 30.2706 10.0422C31.6261 10.0422 32.3994 9.49942 32.8939 9.00775C33.2989 8.60386 33.5656 8.02386 33.6661 7.22886H30.2706V5.81608H35.0478C35.0983 6.06831 35.1233 6.37164 35.1233 6.69942C35.1233 7.75886 34.8317 9.07053 33.8939 10.0044C32.9817 10.95 31.8167 11.4544 30.2706 11.4544Z" fill="#5F6368"/>
<path d="M42.5163 8.12438C42.5163 10.0416 41.0352 11.4544 39.2185 11.4544C37.4024 11.4544 35.9219 10.0416 35.9219 8.12438C35.9219 6.19438 37.4024 4.79437 39.2185 4.79437C41.0352 4.79437 42.5163 6.19438 42.5163 8.12438ZM41.073 8.12438C41.073 6.92605 40.2135 6.10605 39.2185 6.10605C38.2235 6.10605 37.3647 6.92605 37.3647 8.12438C37.3647 9.30994 38.2235 10.1427 39.2185 10.1427C40.2135 10.1427 41.073 9.30994 41.073 8.12438Z" fill="#5F6368"/>
<path d="M49.9069 8.12438C49.9069 10.0416 48.4258 11.4544 46.6092 11.4544C44.7936 11.4544 43.3125 10.0416 43.3125 8.12438C43.3125 6.19438 44.7936 4.79437 46.6092 4.79437C48.4258 4.79437 49.9069 6.19438 49.9069 8.12438ZM48.4636 8.12438C48.4636 6.92605 47.6047 6.10605 46.6092 6.10605C45.6142 6.10605 44.7558 6.92605 44.7558 8.12438C44.7558 9.30994 45.6142 10.1427 46.6092 10.1427C47.6047 10.1427 48.4636 9.30994 48.4636 8.12438Z" fill="#5F6368"/>
<path d="M57.1064 4.99604V10.9755C57.1064 13.4355 55.6498 14.4444 53.9264 14.4444C52.3048 14.4444 51.3292 13.3594 50.962 12.4766L52.2409 11.9466C52.4692 12.4888 53.0264 13.1322 53.9264 13.1322C55.0286 13.1322 55.7131 12.4516 55.7131 11.1772V10.6977H55.6625C55.3331 11.1016 54.6992 11.4544 53.9014 11.4544C52.2286 11.4544 50.6953 10.0044 50.6953 8.13716C50.6953 6.25772 52.2286 4.79437 53.9014 4.79437C54.6992 4.79437 55.3331 5.14771 55.6625 5.53882H55.7131V4.99604H57.1064ZM55.8142 8.13716C55.8142 6.96438 55.0286 6.10605 54.0281 6.10605C53.0142 6.10605 52.1653 6.96438 52.1653 8.13716C52.1653 9.29772 53.0142 10.1427 54.0281 10.1427C55.0286 10.1427 55.8142 9.29772 55.8142 8.13716Z" fill="#5F6368"/>
<path d="M59.6887 11.2522H58.2188V1.46442H59.6887V11.2522Z" fill="#5F6368"/>
<path d="M65.4585 9.22171L66.5991 9.97838C66.2324 10.5212 65.3446 11.4539 63.8118 11.4539C61.9118 11.4539 60.5391 9.99171 60.5391 8.12504C60.5391 6.14449 61.9235 4.79504 63.6474 4.79504C65.3835 4.79504 66.2324 6.16949 66.5107 6.91338L66.6624 7.29171L62.1902 9.13338C62.5324 9.80171 63.0641 10.1428 63.8118 10.1428C64.5591 10.1428 65.0791 9.77671 65.4585 9.22171ZM61.9491 8.02338L64.9396 6.78782C64.7746 6.37171 64.2807 6.08116 63.6974 6.08116C62.9502 6.08116 61.9118 6.73671 61.9491 8.02338Z" fill="#5F6368"/>
<path d="M0.28125 12.7778L8.33681 0H13.3368V1.77778L6.39236 12.7778" fill="#FBBC04"/>
<path d="M13.3359 12.7778H8.33594V0H13.3359V12.7778Z" fill="#1A73E8"/>
<path d="M16.947 9.16665C16.947 11.1611 15.3304 12.7778 13.3359 12.7778V5.55554C15.3304 5.55554 16.947 7.17221 16.947 9.16665Z" fill="#34A853"/>
<path d="M13.3299 12.7778C11.3354 12.7778 9.71875 11.1611 9.71875 9.16665C9.71875 7.17221 11.3354 5.55554 13.3299 5.55554V12.7778Z" fill="#0D652D"/>
<path d="M16.1137 2.77777C16.1137 4.31166 14.8704 5.55555 13.3359 5.55555V0C14.8704 0 16.1137 1.24389 16.1137 2.77777Z" fill="#1A73E8"/>
<path d="M13.3325 5.55555C11.798 5.55555 10.5547 4.31166 10.5547 2.77777C10.5547 1.24389 11.798 0 13.3325 0V5.55555Z" fill="#174EA6"/>
<path d="M0.554688 2.49999C0.554688 1.11944 1.67413 0 3.05468 0C4.43523 0 5.55467 1.11944 5.55467 2.49999C5.55467 3.88054 4.43523 4.99998 3.05468 4.99998C1.67413 4.99998 0.554688 3.88054 0.554688 2.49999Z" fill="#EA4335"/>
</g>
<defs>
<clipPath id="clip0_1_2574">
<rect width="100" height="14.4444" fill="white"/>
</clipPath>
</defs>
</svg>

<svg xmlns="http://www.w3.org/2000/svg" width="426.667" height="64" fill="none" viewBox="0 0 100 15"><g clip-path="url(#a)"><path fill="#5F6368" d="M71.73 7.33v3.923h-1.175V2.104h5.34v1.124H71.73v3.003h3.757v1.1H71.73ZM76.43 8.123c0-.962.302-1.759.907-2.39.613-.63 1.384-.945 2.313-.945.929 0 1.695.315 2.3.945.613.631.92 1.428.92 2.39 0 .971-.307 1.768-.92 2.39-.605.63-1.371.945-2.3.945-.929 0-1.7-.315-2.313-.946-.605-.63-.907-1.427-.907-2.39Zm1.175 0c0 .673.196 1.218.588 1.635.392.418.877.626 1.457.626.58 0 1.065-.208 1.456-.626.392-.417.588-.962.588-1.635 0-.665-.196-1.206-.588-1.623a1.925 1.925 0 0 0-1.456-.639c-.571 0-1.057.213-1.457.64-.392.416-.588.957-.588 1.622ZM83.867 4.992h1.125v.869h.05c.18-.306.455-.562.825-.766.37-.205.756-.307 1.157-.307.766 0 1.356.219 1.769.658.413.438.62 1.062.62 1.872v3.935h-1.176V7.394c-.025-1.022-.54-1.533-1.546-1.533-.469 0-.86.19-1.175.569-.316.379-.473.832-.473 1.36v3.463h-1.176v-6.26ZM93.028 11.356c-.51 0-.935-.158-1.271-.474-.337-.315-.51-.753-.518-1.315V6.066h-1.098V4.993h1.098V3.076h1.176v1.917h1.533v1.073h-1.533v3.117c0 .418.08.701.243.85.162.15.345.223.549.223.094 0 .185-.01.275-.03.09-.022.172-.05.25-.085l.37 1.048c-.307.11-.665.167-1.074.167ZM99.725 9.516c0 .545-.24 1.005-.716 1.38-.477.374-1.078.562-1.802.562-.63 0-1.185-.165-1.661-.492a2.707 2.707 0 0 1-1.023-1.297l1.048-.447c.154.375.377.666.67.875.295.209.617.313.966.313.375 0 .688-.08.94-.243.25-.161.376-.353.376-.575 0-.4-.306-.694-.92-.881l-1.073-.269c-1.219-.306-1.828-.894-1.828-1.763 0-.57.232-1.029.696-1.373.465-.345 1.06-.518 1.784-.518.553 0 1.054.132 1.5.396.448.264.76.617.94 1.06l-1.048.435a1.323 1.323 0 0 0-.581-.62 1.834 1.834 0 0 0-.901-.223c-.307 0-.582.076-.825.23-.242.153-.364.34-.364.562 0 .358.337.613 1.01.767l.946.242c1.243.307 1.866.933 1.866 1.879ZM30.27 11.454c-2.862 0-5.27-2.32-5.27-5.171 0-2.85 2.408-5.172 5.27-5.172 1.585 0 2.712.618 3.562 1.426l-1.003.996a3.626 3.626 0 0 0-2.558-1.01c-2.091 0-3.725 1.679-3.725 3.76 0 2.081 1.634 3.76 3.725 3.76 1.355 0 2.128-.544 2.623-1.035.405-.404.672-.984.772-1.78h-3.395V5.817h4.777c.05.252.075.556.075.883 0 1.06-.291 2.372-1.23 3.305-.911.946-2.076 1.45-3.622 1.45ZM42.516 8.124c0 1.918-1.48 3.33-3.297 3.33-1.817 0-3.297-1.412-3.297-3.33 0-1.93 1.48-3.33 3.297-3.33 1.816 0 3.297 1.4 3.297 3.33Zm-1.443 0c0-1.198-.86-2.018-1.855-2.018s-1.853.82-1.853 2.018c0 1.186.858 2.019 1.853 2.019s1.855-.833 1.855-2.019ZM49.907 8.124c0 1.918-1.481 3.33-3.298 3.33-1.815 0-3.297-1.412-3.297-3.33 0-1.93 1.482-3.33 3.297-3.33 1.817 0 3.298 1.4 3.298 3.33Zm-1.443 0c0-1.198-.86-2.018-1.855-2.018s-1.853.82-1.853 2.018c0 1.186.858 2.019 1.853 2.019.996 0 1.855-.833 1.855-2.019ZM57.106 4.996v5.98c0 2.46-1.456 3.468-3.18 3.468-1.621 0-2.597-1.085-2.964-1.967l1.279-.53c.228.542.785 1.185 1.685 1.185 1.103 0 1.787-.68 1.787-1.955v-.48h-.05c-.33.405-.964.757-1.762.757-1.672 0-3.206-1.45-3.206-3.317 0-1.88 1.534-3.343 3.206-3.343.798 0 1.432.354 1.761.745h.051v-.543h1.393Zm-1.292 3.141c0-1.173-.785-2.031-1.786-2.031-1.014 0-1.863.858-1.863 2.031 0 1.16.85 2.006 1.863 2.006 1 0 1.786-.845 1.786-2.006ZM59.689 11.252h-1.47V1.464h1.47v9.788ZM65.459 9.222l1.14.756c-.367.543-1.254 1.476-2.787 1.476-1.9 0-3.273-1.462-3.273-3.329 0-1.98 1.384-3.33 3.108-3.33 1.736 0 2.585 1.374 2.864 2.118l.151.379-4.472 1.841c.342.669.874 1.01 1.622 1.01.747 0 1.267-.366 1.647-.921Zm-3.51-1.199 2.99-1.235c-.164-.416-.658-.707-1.242-.707-.747 0-1.785.656-1.748 1.942Z"/><path fill="#FBBC04" d="M.281 12.778 8.337 0h5v1.778l-6.945 11"/><path fill="#1A73E8" d="M13.336 12.778h-5V0h5v12.778Z"/><path fill="#34A853" d="M16.947 9.167a3.611 3.611 0 0 1-3.611 3.61V5.557a3.611 3.611 0 0 1 3.611 3.61Z"/><path fill="#0D652D" d="M13.33 12.778a3.611 3.611 0 1 1 0-7.222v7.222Z"/><path fill="#1A73E8" d="M16.114 2.778a2.778 2.778 0 0 1-2.778 2.778V0a2.778 2.778 0 0 1 2.778 2.778Z"/><path fill="#174EA6" d="M13.332 5.556a2.778 2.778 0 1 1 0-5.556v5.556Z"/><path fill="#EA4335" d="M.555 2.5a2.5 2.5 0 1 1 5 0 2.5 2.5 0 0 1-5 0Z"/></g><defs><clipPath id="a"><path fill="#fff" d="M0 0h100v14.444H0z"/></clipPath></defs></svg>
